X: 11790
T: Elizabethan Serenade, The
R: waltz
M: 3/4
K: Gmajor
|:DF|G4 A2|B4 G2|(D6|D2) B2 G2|
d4 A2|B4 G2|(D6|D2) B2 G2|
d2 g2 f2|e4 c2|G2 e2 c2|d4 B2|
G2 c2 B2|A4 F2|D2 A2 F2|G2 .g.g d2|
B2 .G.G A2|G2 .g.g d2|B2 .G.G A2|G2 .b.b g2|
e2 .c.c e2|d2 .g.g d2|B2 .G.G A2|.G.G A2 DF:|

